X:91
T:Huntsman's Chorus, The
S:John Moore's Book 2
Z:Transcribed by Edmund Spriggs 05/2021
%%VWML: Moore1-4494-p70-0
F:http://www.vwml.org/record/Moore2/4494/p70
M:2/4
N:1. The tune runs over to page 71.
N:2. The last note of the first strain should be a dotted quaver.
N:3. Bar line missing.
N:4. The crotchet c should be a quaver.
N:5. The crotchet a should be a quaver.
L:1/8
K:D
A|d2d/e/f/g/|(a2f)f|ea ea|f/g/f/e/ dA|
d2d/e/f/g/|(a2f)f|{f/}ed/e/fe|d2|]
A|d2d/e/f/g/|(a2f)f|ea ea|f/g/f/e/ dA|
d2d/e/f/g/|(a2f)f|ea c'b|a3|]
e|f2ff|d2dd|g2gg|e2eA|
f2ff|d2dd|g2gg|e2z1A|
f2ff|g2gg|e2f/e/d/e/|f2dd|
{a}g2gg|f/e/d/e/ fe|d2z1A|A A/A/ A A/A/|
A A/A/ A A/A/|(d2A)f|(d2A)f|{a/}ge {a/}ge |
{a/}ge {a/}ge|(d2A)f|(d2A)f|{a/}ge {a/}ge |
{a/}ge {a/}ge|fd/f/a2|fd/f/a2|fd/d/ df|
!fermata!e4|(d2A)f|(d2A)f|{a/}ge {a/}ge|
{a/}ge {a/}ge|(d2A)f(d2A)f|{a/}ge {a/}ge |
{a/}ge {a/}ge|f(d/f/)a2|f(d/f/)a2|fd/d/ dd|
d2c2a/a/|a2f/f/ fd'/d'/|d'a/a/ af/f/|f2 e/>d/c/>B/|
A2Fa/a/|af/f/ fd'/d'/|d'a/a/ af/f/|f2 e/>d/c/>e/|
d/>c/d/>^d/ e/>c/A/>c/|d/>c/d/>^d/ e/>c/A/>c/|dd/d/ df|d2z1|]
